icon/pk/folder-quality-one.svg

<svg viewBox="0 0 48 48" fill="none" xmlns="http://www.w3.org/2000/svg" height="1em" width="1em">
  <path d="M43 23V14C43 12.8954 42.1046 12 41 12H24L19 6H7C5.89543 6 5 6.89543 5 8V40C5 41.1046 5.89543 42 7 42H22" stroke="black" stroke-width="4" stroke-linecap="round" stroke-linejoin="round"/>
  <path d="M29.8 29H38.2L41 32.5294L34 41L27 32.5294L29.8 29Z" fill="#2F88FF" stroke="black" stroke-width="4" stroke-linecap="round" stroke-linejoin="round"/>
</svg>

<svg width="48" height="48" fill="none" xmlns="http://www.w3.org/2000/svg"><path d="M43 23v-9a2 2 0 0 0-2-2H24l-5-6H7a2 2 0 0 0-2 2v32a2 2 0 0 0 2 2h15" stroke="#000" stroke-width="4" stroke-linecap="round" stroke-linejoin="round"/><path d="M29.8 29h8.4l2.8 3.53L34 41l-7-8.47L29.8 29Z" fill="#2F88FF" stroke="#000" stroke-width="4" stroke-linecap="round" stroke-linejoin="round"/></svg>
